X: 18156
T: Humours Of Derrycrossane, The
R: slip jig
M: 9/8
K: Gmajor
B3 BdB c2d|BAG B/c/dB ABc|BAG BdB c2e|dBG GDG G2d|
Bc/B/B BdB c2d|BAG BdB ABc|BAG BdB ceg|dBG GAF G3||
d|g3 edc Bcd|ecA AcA A2d|g3 edc Bcd|gdB GAG G2d|
g3 edc Bcd|ecA AcA A3|def gfe def|gbg agf g2||

